static/icons/services/product-design.svg

<?xml version="1.0" encoding="UTF-8"?>
<svg width="56px" height="40px" viewBox="0 0 56 40" version="1.1" xmlns="http://www.w3.org/2000/svg" xmlns:xlink="http://www.w3.org/1999/xlink">
    <!-- Generator: Sketch 51 (57462) - http://www.bohemiancoding.com/sketch -->
    <title>Fill 1</title>
    <desc>Created with Sketch.</desc>
    <defs></defs>
    <g id="Page-1" stroke="none" stroke-width="1" fill="none" fill-rule="evenodd">
        <path d="M41.916,36.41 L49.823,36.41 L49.823,28.503 L41.916,28.503 L41.916,36.41 Z M23.711,11.499 L31.618,11.499 L31.618,3.591 L23.711,3.591 L23.711,11.499 Z M5.506,36.41 L13.414,36.41 L13.414,28.503 L5.506,28.503 L5.506,36.41 Z M51.618,3.833 C50.378,3.833 49.225,4.45 48.533,5.483 L48.356,5.75 L35.209,5.75 L35.209,0 L20.121,0 L20.121,5.75 L6.974,5.75 L6.796,5.482 C6.105,4.45 4.952,3.833 3.712,3.833 C1.665,3.833 0,5.498 0,7.545 C0,9.591 1.665,11.256 3.712,11.256 C4.948,11.256 6.101,10.635 6.797,9.597 L6.975,9.33 L14.855,9.33 L13.628,10.386 C9.852,13.633 7.796,18.452 7.682,24.324 L7.672,24.912 L1.916,24.912 L1.916,40 L17.005,40 L17.005,24.912 L11.257,24.912 L11.271,24.298 C11.421,17.909 14.188,13.315 19.273,11.014 L20.121,10.631 L20.121,15.088 L35.209,15.088 L35.209,10.631 L36.057,11.014 C41.141,13.315 43.909,17.909 44.059,24.298 L44.072,24.912 L38.325,24.912 L38.325,40 L53.413,40 L53.413,24.912 L47.659,24.912 L47.646,24.324 C47.533,18.455 45.486,13.638 41.724,10.394 L40.501,9.34 L48.354,9.34 L48.533,9.606 C49.225,10.639 50.378,11.256 51.618,11.256 C53.665,11.256 55.33,9.591 55.33,7.545 C55.33,5.498 53.665,3.833 51.618,3.833 Z" id="Fill-1" fill="#010101"></path>
    </g>
</svg>

<svg xmlns="http://www.w3.org/2000/svg" viewBox="0 0 55.33 40"><defs><style>.cls-1{fill:#010101;}</style></defs><title>Asset 11</title><g id="Layer_2" data-name="Layer 2"><g id="Layer_1-2" data-name="Layer 1"><path class="cls-1" d="M51.62,3.83a3.72,3.72,0,0,0-3.09,1.65l-.17.27H35.21V0H20.12V5.75H7L6.8,5.48a3.72,3.72,0,1,0,0,4.12L7,9.33h7.87l-1.22,1.06c-3.78,3.24-5.83,8.06-6,13.93v.59H1.92V40H17V24.91H11.26V24.3c.15-6.39,2.92-11,8-13.29l.85-.38v4.46H35.21V10.63l.85.38c5.08,2.3,7.85,6.9,8,13.29v.61H38.33V40H53.41V24.91H47.66v-.59c-.12-5.87-2.16-10.68-5.93-13.93L40.5,9.34h7.85l.18.27a3.71,3.71,0,1,0,3.09-5.78ZM13.41,28.5v7.91H5.51V28.5Zm18.21-17H23.71V3.59h7.91Zm18.2,17v7.91h-7.9V28.5Z"/></g></g></svg>
